icon/cg/play-list-check.svg

<svg viewBox="0 0 24 24" fill="none" xmlns="http://www.w3.org/2000/svg" height="1em" width="1em">
  <path d="M15 6H3V8H15V6Z" fill="currentColor"/>
  <path d="M15 10H3V12H15V10Z" fill="currentColor"/>
  <path d="M3 14H11V16H3V14Z" fill="currentColor"/>
  <path d="M11.9905 15.025L13.4049 13.6106L15.526 15.7321L19.7687 11.4895L21.1829 12.9037L15.526 18.5606L11.9905 15.025Z" fill="currentColor"/>
</svg>

<svg width="24" height="24" fill="none" xmlns="http://www.w3.org/2000/svg"><path d="M15 6H3v2h12V6ZM15 10H3v2h12v-2ZM3 14h8v2H3v-2ZM11.99 15.025l1.415-1.414 2.121 2.121 4.243-4.242 1.414 1.414-5.657 5.657-3.535-3.536Z" fill="currentColor"/></svg>
